assets/icons/uE040-layers.svg

<svg xmlns="http://www.w3.org/2000/svg" width="896" height="1232" viewBox="0 0 896 1232"><path d="M644 112v140h-56V112H56v532h140v56H56q-23 0-39.5-16.5T0 644V112q0-23 16.5-39.5T56 56h532q23 0 39.5 16.5T644 112zm196 196q23 0 39.5 16.5T896 364v532q0 23-16.5 39.5T840 952H308q-23 0-39.5-16.5T252 896V364q0-23 16.5-39.5T308 308h532zm0 588V364H308v532h532z"/></svg>

<?xml version="1.0" encoding="UTF-8" standalone="no"?><svg   xmlns:svg="http://www.w3.org/2000/svg"   xmlns="http://www.w3.org/2000/svg"   version="1.1"   width="896"   height="1232"   viewBox="0 0 896 1232">  <path     d="M644 112V252H588V112H56V644H196V700H56Q33 700 16.5 683.5T0 644V112Q0 89 16.5 72.5T56 56H588Q611 56 627.5 72.5T644 112zM840 308Q863 308 879.5 324.5T896 364V896Q896 919 879.5 935.5T840 952H308Q285 952 268.5 935.5T252 896V364Q252 341 268.5 324.5T308 308H840zM840 896V364H308V896H840z"     id="icon90" /></svg>
